public/assets/site_images/logo-site.svg

<svg width="94" height="102" viewBox="0 0 94 102" xmlns="http://www.w3.org/2000/svg"><title>highpass</title><path d="M26.648 94.232v-12.24l-12.384 6.048-13.824-6.912v-60.336l13.824-6.912 12.384 6.048v-12.24l13.968-6.912 6.624 3.168 6.48-3.168 13.968 6.912v12.24l12.384-6.048 13.824 6.912v60.336l-13.824 6.912-12.384-6.048v12.24l-13.968 6.912-6.48-3.168-6.624 3.168-13.968-6.912zm1.584-1.008l11.376 5.616v-50.688l-11.376-5.616v18.72c0 .192-.144.288-.432.288h-.72l-13.536-6.768v-19.728l-11.52-5.616v50.688l11.52 5.616v-18.72c0-.192.096-.288.288-.288h.864l13.536 6.768v19.728zm13.248-45.072v50.688l4.752-2.304v-50.688l-4.752 2.304zm6.624 48.384l4.752 2.304v-50.688l-4.752-2.304v50.688zm6.624-48.384v50.688l11.376-5.616v-19.728l13.536-6.768h.864c.288 0 .432.096.432.288v18.72l11.376-5.616v-50.688l-11.376 5.616v19.728l-13.68 6.768h-.864c-.192 0-.288-.096-.288-.288v-18.72l-11.376 5.616zm-39.6 20.736v16.848l11.376-5.616v-5.616l-11.376-5.616zm52.704 11.232l11.376 5.616v-16.848l-11.376 5.616v5.616zm-51.264-25.776l9.936 5.04v-10.224l-9.936 5.04v.144zm51.264-5.184v10.224l10.08-5.04v-.144l-10.08-5.04zm-52.704-14.112v17.712l11.376-5.616v-17.712l-11.376 5.616zm52.704 12.096l11.376 5.616v-17.712l-11.376-5.616v17.712zm-38.16-5.904l10.944 5.472 5.616-2.88v-5.472l-5.616-2.88-10.944 5.472v.288zm18.432 2.592l5.616 2.88 10.944-5.472v-.288l-10.944-5.472-5.616 2.88v5.472zm-19.728-14.4v10.224l9.936-5.04v-.288l-9.936-4.896zm27.648 5.184l9.936 5.04v-10.224l-9.936 4.896v.288zm-14.544-.576l4.752 2.304v-23.472l-4.752 2.448v18.72zm6.624-21.168v23.472l4.752-2.304v-18.72l-4.752-2.448zm-44.784 15.12l10.944 5.472 10.944-5.472v-.144l-4.176-2.16h-13.536l-4.176 2.16v.144zm65.808 0l10.944 5.472 10.944-5.472v-.144l-4.176-2.16h-13.392l-4.32 2.16v.144zm-40.752-.576l11.232 5.616v-17.712l-11.232-5.76v17.856zm26.352-12.096v17.712l11.232-5.616v-17.856l-11.232 5.76zm-52.704 7.488v3.6l3.744-1.728-3.744-1.872zm20.736 1.872l3.744 1.728v-3.6l-3.744 1.872zm45.072-1.872v3.6l3.744-1.728-3.744-1.872zm20.88 1.872l3.6 1.728v-3.6l-3.6 1.872zm-85.392-3.168l4.752 2.304h12.384l4.752-2.304v-.288l-10.944-5.472-10.944 5.472v.288zm65.808 0l4.752 2.304h12.384l4.752-2.304v-.288l-10.944-5.472-10.944 5.472v.288zm-39.456-13.248l10.944 5.472 5.616-2.736v-5.616l-5.616-2.736-10.944 5.328v.288zm18.432 2.736l5.616 2.736 10.944-5.472v-.288l-10.944-5.328-5.616 2.736v5.616z" fill-rule="evenodd"/></svg>

<svg width="94" height="102" viewBox="0 0 94 102" xmlns="http://www.w3.org/2000/svg"><title>highpass</title><path d="M26.648 94.232v-12.24L14.264 88.04.44 81.128V20.792l13.824-6.912 12.384 6.048V7.688L40.616.776l6.624 3.168L53.72.776l13.968 6.912v12.24l12.384-6.048 13.824 6.912v60.336L80.072 88.04l-12.384-6.048v12.24l-13.968 6.912-6.48-3.168-6.624 3.168-13.968-6.912zm1.584-1.008l11.376 5.616V48.152l-11.376-5.616v18.72c0 .192-.144.288-.432.288h-.72l-13.536-6.768V35.048l-11.52-5.616V80.12l11.52 5.616v-18.72c0-.192.096-.288.288-.288h.864l13.536 6.768v19.728zM41.48 48.152V98.84l4.752-2.304V45.848l-4.752 2.304zm6.624 48.384l4.752 2.304V48.152l-4.752-2.304v50.688zm6.624-48.384V98.84l11.376-5.616V73.496l13.536-6.768h.864c.288 0 .432.096.432.288v18.72l11.376-5.616V29.432l-11.376 5.616v19.728l-13.68 6.768h-.864c-.192 0-.288-.096-.288-.288v-18.72l-11.376 5.616zm-39.6 20.736v16.848l11.376-5.616v-5.616l-11.376-5.616zM67.832 80.12l11.376 5.616V68.888l-11.376 5.616v5.616zM16.568 54.344l9.936 5.04V49.16l-9.936 5.04v.144zm51.264-5.184v10.224l10.08-5.04V54.2l-10.08-5.04zM15.128 35.048V52.76l11.376-5.616V29.432l-11.376 5.616zm52.704 12.096l11.376 5.616V35.048l-11.376-5.616v17.712zm-38.16-5.904l10.944 5.472 5.616-2.88V38.36l-5.616-2.88-10.944 5.472v.288zm18.432 2.592l5.616 2.88 10.944-5.472v-.288L53.72 35.48l-5.616 2.88v5.472zm-19.728-14.4v10.224l9.936-5.04v-.288l-9.936-4.896zm27.648 5.184l9.936 5.04V29.432l-9.936 4.896v.288zM41.48 34.04l4.752 2.304V12.872L41.48 15.32v18.72zm6.624-21.168v23.472l4.752-2.304V15.32l-4.752-2.448zM3.32 27.992l10.944 5.472 10.944-5.472v-.144l-4.176-2.16H7.496l-4.176 2.16v.144zm65.808 0l10.944 5.472 10.944-5.472v-.144l-4.176-2.16H73.448l-4.32 2.16v.144zm-40.752-.576l11.232 5.616V15.32L28.376 9.56v17.856zM54.728 15.32v17.712l11.232-5.616V9.56l-11.232 5.76zM2.024 22.808v3.6l3.744-1.728-3.744-1.872zM22.76 24.68l3.744 1.728v-3.6L22.76 24.68zm45.072-1.872v3.6l3.744-1.728-3.744-1.872zm20.88 1.872l3.6 1.728v-3.6l-3.6 1.872zM3.32 21.512l4.752 2.304h12.384l4.752-2.304v-.288l-10.944-5.472L3.32 21.224v.288zm65.808 0l4.752 2.304h12.384l4.752-2.304v-.288l-10.944-5.472-10.944 5.472v.288zM29.672 8.264l10.944 5.472L46.232 11V5.384l-5.616-2.736-10.944 5.328v.288zM48.104 11l5.616 2.736 10.944-5.472v-.288L53.72 2.648l-5.616 2.736V11z" fill-rule="evenodd"/></svg>
